X: 59
T: No_151_My_Wings_Make_a_Noise_as_I_Fly.krn
N: Derived from No_151_My_Wings_Make_a_Noise_as_I_Fly.krn
%%abc-version 2.0
%%abcx-abcm2ps-target-version 5.9.1 (29 Sep 2008)
%%abc-creator hum2abc beta
%%abcx-conversion-date 2019/03/15 08:37:56
%%humdrum-veritas 3350838647
%%humdrum-veritas-data 4265894671
%%linebreak <none>
%%barnumbers 0
L: 1/8
M: 2/4
K: G clef=bass
[K:clef=bass][M:2/4]E,E,E,2 ||  
[M:3/4]B,/C3/ B,/C3/ CC | 
B,2B,2G,F, | 
B,/B,3/B,2B,2 | 
B,2B,2B,G, | 
G,2G,2F, z ||  
[M:2/4]G,G,G,2 ||  
[M:3/4]B,/C3/ B,/C3/ (B,3/G,/) | 
G,2G,F,E,2 ||  
[M:2/4]G,2G,F, | 
G,2F,F, ||  
[M:3/4]E,E,E,2B,, z ||  
[M:2/4]G,F, E,E, | 
E,2B,,B,, | 
E,2E,E, | 
E,2E,E, | 
E,4 |]  



